X:1
T:Гей степами
T:Гей степами
T:Степан Малюта
C:Степан Малюта
%%score { ( 1 2 ) | ( 3 4 ) }
L:1/8
Q:1/4=110
M:2/4
K:Bb
V:1 treble nm="Piano" snm="Pno."
V:2 treble 
V:3 bass 
V:4 bass 
V:1
"^Marciale""_1. Гей," G2"_сте -" G2 |"_па" c3"_ми," c |"_тем -" B"_ни -" e"_ми" d"_я -" c | %3
"_ра -" B2"_ми" A2 |"_йдуть" G2"_по -" G2 |"_хо -" B2"_дом" B2 | %6
"_за -" c"_ліз -" A"_ні" B"_пол -" c |"_ки" d3 z |:"_хто" G2"_від -" G2 |"_важ -" g3"_ний" e | %10
"_Хай" f"_і -" f"_де" f"_із" g |"_на" (f"_-"e)"_ми." (dc) ||1"_ли -" g"_цар -" g"_я -" g"_ми" d ||2 %13
"_ли -" g"_цар -" g"_я -" g"_ми" d ||"_будь -" e"_мо," e"_ю -" d"_на -" c |"_ки!" (G4 | G2) z2 :| %17
V:2
 G2 G2 | G3 G | G B B A | G2 ^F2 | G2 G2 | G2 G2 | A A G G | A3 z |: G2 G2 | B3 B | d d d e | %11
 (dc) (BA) ||1 B B B B ||2 B B B B || c c B A | (G4 | G2) z2 :| %17
V:3
 G,2 F,2 | E,2"^-" E,2 | E, E, F, ^F, | G,2 D,2 | G,2 (G,=F,) | E,2 G,2 | ^F, F, G, G, | ^F,3 z |: %8
 G,2 G,2 | G,3 G, | B, B, B, B, | F,2 ^F,2 ||1 G, G, G, G, ||2 G, =G, G, G, || G, G, ^F, F, | %15
 (G,4 | G,2) z2 :| %17
V:4
 G,2 F,2 | E,2 C,2 | E, E, B,, D, | G,2 D,2 | G,2 (G,F,) | E,2 E,2 | E, E, E, E, | D,3 z |: %8
 G,2 G,2 | E,3 E, | B, B, B, B, | (B,,C,) D,2 ||1 G, F, E, D, ||2 G, F, E, D, || C, C, D, D, | %15
 (G,4 | G,2) z2 :| %17

